src/assets/images/card-blue-rounded-sm.svg

<svg fill="none" height="191" viewBox="0 0 310 191" width="310" xmlns="http://www.w3.org/2000/svg" xmlns:xlink="http://www.w3.org/1999/xlink"><linearGradient id="a" gradientUnits="userSpaceOnUse" x1="22.2565" x2="283.239" y1="235.282" y2="-19.7393"><stop offset="0" stop-color="#7000ff"/><stop offset="1" stop-color="#00f3f3"/></linearGradient><linearGradient id="b"><stop offset="0" stop-color="#fff"/><stop offset="1" stop-color="#fff" stop-opacity="0"/></linearGradient><linearGradient id="c" gradientUnits="userSpaceOnUse" x1="228.256" x2="305.756" xlink:href="#b" y1="36.3212" y2="36.3212"/><linearGradient id="d" gradientUnits="userSpaceOnUse" x1="-8.88017" x2="70.4083" xlink:href="#b" y1="160.818" y2="160.818"/><linearGradient id="e"><stop offset="0" stop-color="#5242fc"/><stop offset=".4637" stop-color="#475afb" stop-opacity=".36"/><stop offset="1" stop-color="#465dfb" stop-opacity="0"/></linearGradient><radialGradient id="f" cx="0" cy="0" gradientTransform="matrix(75.38889658 -75.38889658 16.77865397 16.77865397 281.427 98.2753)" gradientUnits="userSpaceOnUse" r="1" xlink:href="#e"/><radialGradient id="g" cx="0" cy="0" gradientTransform="matrix(56.67298217 -56.67298217 12.61315863 12.61315863 263.483 164.853)" gradientUnits="userSpaceOnUse" r="1" xlink:href="#e"/><linearGradient id="h"><stop offset="0" stop-color="#388cff"/><stop offset=".4637" stop-color="#23a9f7" stop-opacity=".63"/><stop offset="1" stop-color="#2e90f8" stop-opacity="0"/></linearGradient><radialGradient id="i" cx="0" cy="0" gradientTransform="matrix(54.32489268 -54.32489268 12.09060672 12.09060672 47.6714 134.892)" gradientUnits="userSpaceOnUse" r="1" xlink:href="#h"/><radialGradient id="j" cx="0" cy="0" gradientTransform="matrix(54.32489268 -54.32489268 12.09060672 12.09060672 102.782 22.683)" gradientUnits="userSpaceOnUse" r="1" xlink:href="#h"/><radialGradient id="k" cx="0" cy="0" gradientTransform="matrix(41.97675767 -41.97675767 9.3423655 9.3423655 173.662 140.596)" gradientUnits="userSpaceOnUse" r="1" xlink:href="#h"/><radialGradient id="l" cx="0" cy="0" gradientTransform="matrix(68.56199274 -68.56199274 15.25922292 15.25922292 100.067 148.468)" gradientUnits="userSpaceOnUse" r="1" xlink:href="#h"/><linearGradient id="m" gradientUnits="userSpaceOnUse" x1="245.517" x2="316" y1="187.865" y2="111.854"><stop offset="0" stop-color="#4b52fb"/><stop offset="1" stop-color="#1abdf6" stop-opacity=".42"/></linearGradient><linearGradient id="n" gradientUnits="userSpaceOnUse" x1="66.3596" x2="-11.92" y1="10.2472" y2="93.7386"><stop offset="0" stop-color="#19bdf6"/><stop offset="1" stop-color="#5836fd" stop-opacity="0"/></linearGradient><mask id="o" height="191" maskUnits="userSpaceOnUse" width="310" x="0" y="0"><path d="m303.5 0h-297c-1.39453 0-2.09179 0-2.66723.13815-1.82824.438923-3.255697 1.86638-3.69462 3.69462-.13815.57544-.13815 1.27271-.13815 2.66724v177.76899c0 1.395 0 2.092.13815 2.667.438923 1.829 1.86638 3.256 3.69462 3.695.57544.138 1.2727.138 2.66722.138h297.00001c1.395 0 2.092 0 2.667-.138 1.828-.439 3.256-1.866 3.695-3.695.138-.575.138-1.272.138-2.667v-177.769c0-1.39453 0-2.09179-.138-2.66723-.439-1.82824-1.867-3.255697-3.695-3.69462-.575-.13815-1.272-.13815-2.667-.13815z" fill="url(#a)"/></mask><g mask="url(#o)"><path d="m303.5 0h-297c-1.39453 0-2.09179 0-2.66723.13815-1.82824.438923-3.255697 1.86638-3.69462 3.69462-.13815.57544-.13815 1.27271-.13815 2.66724v177.76899c0 1.395 0 2.092.13815 2.667.438923 1.829 1.86638 3.256 3.69462 3.695.57544.138 1.2727.138 2.66722.138h297.00001c1.395 0 2.092 0 2.667-.138 1.828-.439 3.256-1.866 3.695-3.695.138-.575.138-1.272.138-2.667v-177.769c0-1.39453 0-2.09179-.138-2.66723-.439-1.82824-1.867-3.255697-3.695-3.69462-.575-.13815-1.272-.13815-2.667-.13815z" fill="url(#a)"/><path d="m90.8802 81.2757-2.3183-2.3184-2.2522 2.3184-1.391-1.391 3.6432-3.7094 3.7094 3.7094z" fill="#fff" opacity=".3"/><path d="m228.592 75.0494c-.066 0-.199 0-.265-.0662-.133-.1325-.133-.3312 0-.4637l76.838-76.83762c.132-.13248.331-.13248.463 0 .133.13248.133.3312 0 .46367l-76.837 76.83765s-.133.0662-.199.0662z" fill="url(#c)" opacity=".3"/><path d="m111.348 161.624c-.066 0-.132 0-.198-.066-.067-.066-.067-.265 0-.331l21.66-21.661c.066-.066.265-.066.331 0 .066.067.066.265 0 .331l-21.66 21.661c0 .066-.067.066-.133.066z" fill="#fff" opacity=".3"/><path d="m-8.54486 200.44c-.06624 0-.19872 0-.26496-.066-.13248-.132-.13248-.331 0-.464l78.62612-78.626c.1324-.132.3311-.132.4636 0 .1325.133.1325.332 0 .464l-78.55981 78.626c-.06624.066-.19871.066-.26495.066z" fill="url(#d)" opacity=".3"/><path d="m171.626 34.3122c-.066 0-.132 0-.199-.0663-.066-.0662-.066-.2649 0-.3312l26.032-26.03201c.067-.06624.265-.06624.332 0 .066.06624.066.26495 0 .33119l-25.966 26.03202c-.066.0663-.133.0663-.199.0663z" fill="#fff" opacity=".3"/><g opacity=".8"><path d="m347.359 21.4619c-16.759 3.5107-49.613 26.8932-82.733 60.0128-33.12 33.1193-56.502 65.9743-60.013 82.7333z" fill="url(#f)" opacity=".8"/><path d="m313.047 107.109c-12.598 2.639-37.296 20.217-62.194 45.114-24.897 24.898-42.475 49.596-45.114 62.194z" fill="url(#g)" opacity=".8"/><path d="m95.1858 79.5537c-12.0555 2.5171-35.7692 19.4081-59.6154 43.2543-23.8461 23.846-40.73714 47.56-43.25424 59.615z" fill="url(#i)" opacity=".8"/><path d="m150.297-32.6558c-12.056 2.5171-35.769 19.4082-59.6155 43.2543-23.8461 23.8462-40.7372 47.5598-43.2543 59.6154z" fill="url(#j)" opacity=".8"/><path d="m210.376 97.8359c-9.315 1.945-27.639 14.9971-46.065 33.4221-18.425 18.426-31.477 36.75-33.422 46.065z" fill="url(#k)" opacity=".8"/><path d="m160.034 78.6265c-15.215 3.1767-45.143 24.4945-75.2389 54.5905-30.0956 30.095-51.4133 60.024-54.59 75.239z" fill="url(#l)" opacity=".8"/></g><path d="m234 157c0 8.109 2.405 16.036 6.91 22.778 4.505 6.743 10.908 11.998 18.4 15.101s15.735 3.915 23.689 2.333c7.953-1.582 15.258-5.487 20.992-11.221s9.639-13.039 11.221-20.992c1.582-7.954.77-16.197-2.333-23.689s-8.358-13.895-15.101-18.4c-6.742-4.505-14.669-6.91-22.778-6.91" stroke="url(#m)" stroke-width="20"/><path d="m79 44.5c0-8.9991-2.6392-17.796-7.5839-25.2784-4.9446-7.4825-11.9727-13.31433-20.1953-16.75812-8.2227-3.443786-17.2707-4.34484-25.9999-2.58921-8.7291 1.75563-16.74734 6.08908-23.04071 12.45233-6.29336 6.3633-10.57919 14.4707-12.31549 23.2968-1.7364 8.8261-.8452 17.9747 2.56072 26.2887 3.40594 8.314 9.17371 15.4202 16.57392 20.4198 7.40026 4.9996 16.10046 7.6681 25.00066 7.6681" stroke="url(#n)" stroke-width="20"/><path d="m-43.7345 130.276c-.0663 0-.1325 0-.1987-.066-.0663-.066-.0663-.265 0-.331l116.1175-116.1179c.0662-.0662.265-.0662.3312 0s.0662.265 0 .3312l-116.1175 116.1177s-.0663.066-.1325.066z" fill="#fff" opacity=".3"/></g></svg>

<svg width="310" height="191" viewBox="0 0 310 191" fill="none" xmlns="http://www.w3.org/2000/svg">
<mask id="mask0_0_16629" style="mask-type:alpha" maskUnits="userSpaceOnUse" x="0" y="0" width="310" height="191">
<path d="M303.5 0H6.5C5.10547 0 4.40821 0 3.83277 0.13815C2.00453 0.577073 0.577073 2.00453 0.13815 3.83277C0 4.40821 0 5.10548 0 6.50001V184.269C0 185.664 0 186.361 0.13815 186.936C0.577073 188.765 2.00453 190.192 3.83277 190.631C4.40821 190.769 5.10547 190.769 6.49999 190.769H303.5C304.895 190.769 305.592 190.769 306.167 190.631C307.995 190.192 309.423 188.765 309.862 186.936C310 186.361 310 185.664 310 184.269V6.5C310 5.10547 310 4.40821 309.862 3.83277C309.423 2.00453 307.995 0.577073 306.167 0.13815C305.592 0 304.895 0 303.5 0Z" fill="url(#paint0_linear_0_16629)"/>
</mask>
<g mask="url(#mask0_0_16629)">
<path d="M303.5 0H6.5C5.10547 0 4.40821 0 3.83277 0.13815C2.00453 0.577073 0.577073 2.00453 0.13815 3.83277C0 4.40821 0 5.10548 0 6.50001V184.269C0 185.664 0 186.361 0.13815 186.936C0.577073 188.765 2.00453 190.192 3.83277 190.631C4.40821 190.769 5.10547 190.769 6.49999 190.769H303.5C304.895 190.769 305.592 190.769 306.167 190.631C307.995 190.192 309.423 188.765 309.862 186.936C310 186.361 310 185.664 310 184.269V6.5C310 5.10547 310 4.40821 309.862 3.83277C309.423 2.00453 307.995 0.577073 306.167 0.13815C305.592 0 304.895 0 303.5 0Z" fill="url(#paint1_linear_0_16629)"/>
<path opacity="0.3" d="M90.8802 81.2757L88.5619 78.9573L86.3097 81.2757L84.9187 79.8847L88.5619 76.1753L92.2713 79.8847L90.8802 81.2757Z" fill="white"/>
<path opacity="0.3" d="M228.592 75.0494C228.526 75.0494 228.393 75.0494 228.327 74.9832C228.194 74.8507 228.194 74.652 228.327 74.5195L305.165 -2.31812C305.297 -2.4506 305.496 -2.4506 305.628 -2.31812C305.761 -2.18564 305.761 -1.98692 305.628 -1.85445L228.791 74.9832C228.791 74.9832 228.658 75.0494 228.592 75.0494Z" fill="url(#paint2_linear_0_16629)"/>
<path opacity="0.3" d="M111.348 161.624C111.282 161.624 111.216 161.624 111.15 161.558C111.083 161.492 111.083 161.293 111.15 161.227L132.81 139.566C132.876 139.5 133.075 139.5 133.141 139.566C133.207 139.633 133.207 139.831 133.141 139.897L111.481 161.558C111.481 161.624 111.414 161.624 111.348 161.624Z" fill="white"/>
<path opacity="0.3" d="M-8.54486 200.44C-8.6111 200.44 -8.74358 200.44 -8.80982 200.374C-8.9423 200.242 -8.9423 200.043 -8.80982 199.91L69.8163 121.284C69.9487 121.152 70.1474 121.152 70.2799 121.284C70.4124 121.417 70.4124 121.616 70.2799 121.748L-8.27991 200.374C-8.34615 200.44 -8.47862 200.44 -8.54486 200.44Z" fill="url(#paint3_linear_0_16629)"/>
<path opacity="0.3" d="M171.626 34.3122C171.56 34.3122 171.494 34.3122 171.427 34.2459C171.361 34.1797 171.361 33.981 171.427 33.9147L197.459 7.88269C197.526 7.81645 197.724 7.81645 197.791 7.88269C197.857 7.94893 197.857 8.14764 197.791 8.21388L171.825 34.2459C171.759 34.3122 171.692 34.3122 171.626 34.3122Z" fill="white"/>
<g opacity="0.8">
<path opacity="0.8" d="M347.359 21.4619C330.6 24.9726 297.746 48.3551 264.626 81.4747C231.506 114.594 208.124 147.449 204.613 164.208L347.359 21.4619Z" fill="url(#paint4_radial_0_16629)"/>
<path opacity="0.8" d="M313.047 107.109C300.449 109.748 275.751 127.326 250.853 152.223C225.956 177.121 208.378 201.819 205.739 214.417L313.047 107.109Z" fill="url(#paint5_radial_0_16629)"/>
<path opacity="0.8" d="M95.1858 79.5537C83.1303 82.0708 59.4166 98.9618 35.5704 122.808C11.7243 146.654 -5.16674 170.368 -7.68384 182.423L95.1858 79.5537Z" fill="url(#paint6_radial_0_16629)"/>
<path opacity="0.8" d="M150.297 -32.6558C138.241 -30.1387 114.528 -13.2476 90.6815 10.5985C66.8354 34.4447 49.9443 58.1583 47.4272 70.2139L150.297 -32.6558Z" fill="url(#paint7_radial_0_16629)"/>
<path opacity="0.8" d="M210.376 97.8359C201.061 99.7809 182.737 112.833 164.311 131.258C145.886 149.684 132.834 168.008 130.889 177.323L210.376 97.8359Z" fill="url(#paint8_radial_0_16629)"/>
<path opacity="0.8" d="M160.034 78.6265C144.819 81.8032 114.891 103.121 84.7951 133.217C54.6995 163.312 33.3818 193.241 30.2051 208.456L160.034 78.6265Z" fill="url(#paint9_radial_0_16629)"/>
</g>
<path d="M234 157C234 165.109 236.405 173.036 240.91 179.778C245.415 186.521 251.818 191.776 259.31 194.879C266.802 197.982 275.045 198.794 282.999 197.212C290.952 195.63 298.257 191.725 303.991 185.991C309.725 180.257 313.63 172.952 315.212 164.999C316.794 157.045 315.982 148.802 312.879 141.31C309.776 133.818 304.521 127.415 297.778 122.91C291.036 118.405 283.109 116 275 116" stroke="url(#paint10_linear_0_16629)" stroke-width="20"/>
<path d="M79 44.5C79 35.5009 76.3608 26.704 71.4161 19.2216C66.4715 11.7391 59.4434 5.90727 51.2208 2.46348C42.9981 -0.980306 33.9501 -1.88136 25.2209 -0.12573C16.4918 1.6299 8.47356 5.96335 2.18019 12.3266C-4.11317 18.6899 -8.399 26.7973 -10.1353 35.6234C-11.8717 44.4495 -10.9805 53.5981 -7.57458 61.9121C-4.16864 70.2261 1.59913 77.3323 8.99934 82.3319C16.3996 87.3315 25.0998 90 34 90" stroke="url(#paint11_linear_0_16629)" stroke-width="20"/>
<path opacity="0.3" d="M-43.7345 130.276C-43.8008 130.276 -43.867 130.276 -43.9332 130.21C-43.9995 130.144 -43.9995 129.945 -43.9332 129.879L72.1843 13.7611C72.2505 13.6949 72.4493 13.6949 72.5155 13.7611C72.5817 13.8273 72.5817 14.0261 72.5155 14.0923L-43.602 130.21C-43.602 130.21 -43.6683 130.276 -43.7345 130.276Z" fill="white"/>
</g>
<defs>
<linearGradient id="paint0_linear_0_16629" x1="22.2565" y1="235.282" x2="283.239" y2="-19.7393" gradientUnits="userSpaceOnUse">
<stop stop-color="#7000FF"/>
<stop offset="1" stop-color="#00F3F3"/>
</linearGradient>
<linearGradient id="paint1_linear_0_16629" x1="22.2565" y1="235.282" x2="283.239" y2="-19.7393" gradientUnits="userSpaceOnUse">
<stop stop-color="#7000FF"/>
<stop offset="1" stop-color="#00F3F3"/>
</linearGradient>
<linearGradient id="paint2_linear_0_16629" x1="228.256" y1="36.3212" x2="305.756" y2="36.3212" gradientUnits="userSpaceOnUse">
<stop stop-color="white"/>
<stop offset="1" stop-color="white" stop-opacity="0"/>
</linearGradient>
<linearGradient id="paint3_linear_0_16629" x1="-8.88017" y1="160.818" x2="70.4083" y2="160.818" gradientUnits="userSpaceOnUse">
<stop stop-color="white"/>
<stop offset="1" stop-color="white" stop-opacity="0"/>
</linearGradient>
<radialGradient id="paint4_radial_0_16629" cx="0" cy="0" r="1" gradientUnits="userSpaceOnUse" gradientTransform="translate(281.427 98.2753) rotate(-45) scale(106.616 23.7286)">
<stop stop-color="#5242FC"/>
<stop offset="0.4637" stop-color="#475AFB" stop-opacity="0.36"/>
<stop offset="1" stop-color="#465DFB" stop-opacity="0"/>
</radialGradient>
<radialGradient id="paint5_radial_0_16629" cx="0" cy="0" r="1" gradientUnits="userSpaceOnUse" gradientTransform="translate(263.483 164.853) rotate(-45) scale(80.1477 17.8377)">
<stop stop-color="#5242FC"/>
<stop offset="0.4637" stop-color="#475AFB" stop-opacity="0.36"/>
<stop offset="1" stop-color="#465DFB" stop-opacity="0"/>
</radialGradient>
<radialGradient id="paint6_radial_0_16629" cx="0" cy="0" r="1" gradientUnits="userSpaceOnUse" gradientTransform="translate(47.6714 134.892) rotate(-45) scale(76.827 17.0987)">
<stop stop-color="#388CFF"/>
<stop offset="0.4637" stop-color="#23A9F7" stop-opacity="0.63"/>
<stop offset="1" stop-color="#2E90F8" stop-opacity="0"/>
</radialGradient>
<radialGradient id="paint7_radial_0_16629" cx="0" cy="0" r="1" gradientUnits="userSpaceOnUse" gradientTransform="translate(102.782 22.683) rotate(-45) scale(76.827 17.0987)">
<stop stop-color="#388CFF"/>
<stop offset="0.4637" stop-color="#23A9F7" stop-opacity="0.63"/>
<stop offset="1" stop-color="#2E90F8" stop-opacity="0"/>
</radialGradient>
<radialGradient id="paint8_radial_0_16629" cx="0" cy="0" r="1" gradientUnits="userSpaceOnUse" gradientTransform="translate(173.662 140.596) rotate(-45) scale(59.3641 13.2121)">
<stop stop-color="#388CFF"/>
<stop offset="0.4637" stop-color="#23A9F7" stop-opacity="0.63"/>
<stop offset="1" stop-color="#2E90F8" stop-opacity="0"/>
</radialGradient>
<radialGradient id="paint9_radial_0_16629" cx="0" cy="0" r="1" gradientUnits="userSpaceOnUse" gradientTransform="translate(100.067 148.468) rotate(-45) scale(96.9613 21.5798)">
<stop stop-color="#388CFF"/>
<stop offset="0.4637" stop-color="#23A9F7" stop-opacity="0.63"/>
<stop offset="1" stop-color="#2E90F8" stop-opacity="0"/>
</radialGradient>
<linearGradient id="paint10_linear_0_16629" x1="245.517" y1="187.865" x2="316" y2="111.854" gradientUnits="userSpaceOnUse">
<stop stop-color="#4B52FB"/>
<stop offset="1" stop-color="#1ABDF6" stop-opacity="0.42"/>
</linearGradient>
<linearGradient id="paint11_linear_0_16629" x1="66.3596" y1="10.2472" x2="-11.92" y2="93.7386" gradientUnits="userSpaceOnUse">
<stop stop-color="#19BDF6"/>
<stop offset="1" stop-color="#5836FD" stop-opacity="0"/>
</linearGradient>
</defs>
</svg>
